assets/icons/solid/prescription-bottle.svg

<svg xmlns="http://www.w3.org/2000/svg" viewBox="0 0 384 512"><!--! Font Awesome Free 6.6.0 by @fontawesome - https://fontawesome.com License - https://fontawesome.com/license/free (Icons: CC BY 4.0, Fonts: SIL OFL 1.1, Code: MIT License) Copyright 2024 Fonticons, Inc. --><path d="M0 32C0 14.3 14.3 0 32 0L352 0c17.7 0 32 14.3 32 32l0 32c0 17.7-14.3 32-32 32L32 96C14.3 96 0 81.7 0 64L0 32zm32 96l320 0 0 320c0 35.3-28.7 64-64 64L96 512c-35.3 0-64-28.7-64-64l0-32 112 0c8.8 0 16-7.2 16-16s-7.2-16-16-16L32 384l0-64 112 0c8.8 0 16-7.2 16-16s-7.2-16-16-16L32 288l0-64 112 0c8.8 0 16-7.2 16-16s-7.2-16-16-16L32 192l0-64z"/></svg>

<svg xmlns="http://www.w3.org/2000/svg" viewBox="0 0 384 512"><!--! Font Awesome Pro 6.5.1 by @fontawesome - https://fontawesome.com License - https://fontawesome.com/license (Commercial License) Copyright 2023 Fonticons, Inc. --><path d="M0 32C0 14.3 14.3 0 32 0H352c17.7 0 32 14.3 32 32V64c0 17.7-14.3 32-32 32H32C14.3 96 0 81.7 0 64V32zm32 96H352V448c0 35.3-28.7 64-64 64H96c-35.3 0-64-28.7-64-64V416H144c8.8 0 16-7.2 16-16s-7.2-16-16-16H32V320H144c8.8 0 16-7.2 16-16s-7.2-16-16-16H32V224H144c8.8 0 16-7.2 16-16s-7.2-16-16-16H32V128z"/></svg>
